resources/icons/html5.svg

<?xml version="1.0" encoding="UTF-8"?>
<svg xmlns="http://www.w3.org/2000/svg" xmlns:xlink="http://www.w3.org/1999/xlink" width="16" height="16" viewBox="0 0 16 16" version="1.1">
<g id="surface1">
<path style=" stroke:none;fill-rule:nonzero;fill:rgb(89.411765%,30.196078%,14.901961%);fill-opacity:1;" d="M 8 11.707031 L 10.714844 10.953125 L 11.078125 6.886719 L 6.253906 6.886719 L 6.132812 5.535156 L 11.199219 5.535156 L 11.332031 4.207031 L 4.667969 4.207031 L 5.039062 8.214844 L 9.632812 8.214844 L 9.480469 9.933594 L 8 10.332031 L 6.519531 9.933594 L 6.425781 8.828125 L 5.09375 8.828125 L 5.285156 10.953125 L 8 11.707031 M 2.714844 2 L 13.285156 2 L 12.332031 12.800781 L 8 14 L 3.667969 12.800781 Z M 2.714844 2 "/>
</g>
</svg>

<svg xmlns="http://www.w3.org/2000/svg" width="16" height="16" viewBox="0 0 16 16"><path d="M8 11.707l2.715-.754.363-4.066H6.254l-.121-1.352h5.066l.133-1.328H4.668l.371 4.008h4.594L9.48 9.934 8 10.332l-1.48-.398-.094-1.106H5.094l.191 2.125L8 11.707M2.715 2h10.57l-.953 10.8L8 14l-4.332-1.2zm0 0" fill="#e44d26"/></svg>
